rospo-newyear-dark/symbolic/status/radio-mixed-symbolic.svg

<svg height="16" width="16" xmlns="http://www.w3.org/2000/svg"><path d="m8 1c-3.86 0-7 3.14-7 7s3.14 7 7 7 7-3.14 7-7-3.14-7-7-7zm0 1c3.31 0 6 2.69 6 6s-2.69 6-6 6-6-2.69-6-6 2.69-6 6-6zm-4 5v2h8v-2z" fill="#d3dae3"/></svg>

<svg xmlns="http://www.w3.org/2000/svg" width="16" height="16" version="1.1">
 <path style="fill:#d3dae3" d="M 8,1 C 4.14,1 1,4.14 1,8 1,11.86 4.14,15 8,15 11.86,15 15,11.86 15,8 15,4.14 11.86,1 8,1 Z M 8,2 C 11.31,2 14,4.69 14,8 14,11.31 11.31,14 8,14 4.69,14 2,11.31 2,8 2,4.69 4.69,2 8,2 Z M 4,7 V 9 H 12 V 7 Z"/>
</svg>
